shader_type canvas_item;

void fragment() {
	if (COLOR.a == 0.0) {
		COLOR = vec4(0.0,0.0,0.0,1.0);
	} else {
		COLOR.a = 0.0;
	}
}

//void light() {
	// Called for every pixel for every light affecting the CanvasItem.
	// Uncomment to replace the default light processing function with this one.
//}
